X: 22
T: The Humours of Covent Garden
%R: jig
B: "Twenty Four Favourite Dances for the Year 1779", Thomas Straight, ed. p.11 #2
F: http://www.vwml.org/browse/browse-collections-dance-tune-books/browse-straights1779
Z: 2014 John Chambers <jc:trillian.mit.edu>
M: 6/8
L: 1/8
K: Dmix
d |\
efg gag | efg gag |\
efg abg | f3 d2 :|\
|: [ee] |\
cBA [e2e2]d | cBA [e2e2]d |\
cBA [e2e2]e | f3 d2 :|
%%begintext align
%% 1st Man set to the 2d Woman and not turn
%% .|. 1st Woman do the same to the 2d Man :|.
%% lead down 1 Cu. up again and cast off .|:
%% turn your Partner :|:
%%endtext

%%sep 1 1 500
%%sep 1 1 500
